src/assets/img/mob_logo.svg

<svg width="321" height="68" viewBox="0 0 321 68" fill="none" xmlns="http://www.w3.org/2000/svg">
<path fill-rule="evenodd" clip-rule="evenodd" d="M293.495 27.4208H306.238V22.7813H293.495V11.6979H304.953V14.2755H309.578V11.6979V11.1309V9.42973C309.578 8.14097 308.55 7.10996 307.266 7.10996H293.495H288.871H285.223V11.7495H288.871V40.8755C288.871 42.1642 289.898 43.1952 291.183 43.1952H292.57H293.495H309.218C310.503 43.1952 311.53 42.1642 311.53 40.8755V38.2979V37.6793V35.9782H306.906V38.5557H293.495V27.4208ZM223.821 43.9169V39.2774C231.631 39.2774 237.951 32.9367 237.951 25.101C237.951 17.2654 231.631 10.9247 223.821 10.9247V6.28516C234.149 6.28516 242.524 14.6879 242.524 25.0495C242.524 35.5142 234.149 43.9169 223.821 43.9169ZM253.777 14.3786L255.575 17.3169L270.219 40.6693L271.76 43.1437H272.223H272.583H276.847V11.6979H280.804V7.05841H276.847H276.128H274.535C273.251 7.05841 272.223 8.08942 272.223 9.37818V35.9266C272.12 35.772 272.069 35.6173 271.966 35.4627C271.452 34.5863 270.938 33.7615 270.425 32.8852L255.267 8.70802L254.239 7.05841H253.777H253.52H250.231H249.152V38.5042H245.196V43.1437H249.152H249.872H251.465C252.749 43.1437 253.777 42.1127 253.777 40.8239V14.3786ZM223.821 6.33671V10.9762C216.011 10.9762 209.691 17.3169 209.691 25.1526C209.691 32.9883 216.011 39.329 223.821 39.329V43.9685C213.75 43.9685 205.529 35.9782 205.118 25.9259V24.4309C205.529 14.327 213.699 6.33671 223.821 6.33671ZM205.118 11.6979V7.05841V11.6979ZM205.118 7.10996V11.7495H193.762V38.5557H197.462V43.1952H193.762H189.138H185.438V38.5557H189.138V11.7495H178.605V7.10996H189.138H193.762H205.118ZM205.118 24.3793C205.118 24.6371 205.118 24.8948 205.118 25.1526C205.118 25.4103 205.118 25.6681 205.118 25.9259V24.3793ZM133.131 27.1115V22.472H136.368H137.293C140.273 22.472 142.688 20.0491 142.688 17.0592C142.688 14.0693 140.273 11.6464 137.293 11.6464H133.542H133.131V7.00686H137.293C142.791 7.00686 147.261 11.5433 147.261 17.0076C147.261 20.7708 145.155 24.07 142.123 25.7712C144.024 27.1631 145.617 29.0704 146.491 31.2871C147.005 32.5759 147.313 33.9677 147.261 35.3596V43.0406H144.949C143.665 43.0406 142.637 42.0096 142.637 40.7208V33.9677C142.637 32.8852 142.277 31.8026 141.661 30.9262C140.684 29.4313 138.989 28.1941 137.139 27.1115H136.317H133.131ZM133.131 7.10996V11.7495H123.574V17.1107V17.2138V22.5751H133.131V27.2146H128.969H123.574V43.2468H121.262C119.977 43.2468 118.95 42.2158 118.95 40.927V17.2138V11.6979H115.302V7.05841H118.95H123.574H128.969H131.23H133.131V7.10996ZM24.7662 7.10996H21.5291H20.4501V38.5557H16.4423V43.1952H20.3987H21.1181H22.7109C23.9955 43.1952 25.0231 42.1642 25.0231 40.8755V14.3786L26.8215 17.3169L41.4654 40.6693L43.0069 43.1437H43.4693H43.829H48.0937V11.6979H52.0502V7.05841H48.0937H47.3744H45.7815C44.497 7.05841 43.4693 8.08942 43.4693 9.37818V35.9266C43.3666 35.772 43.3152 35.6173 43.2124 35.4627C42.6986 34.5863 42.1848 33.7615 41.671 32.8852L26.4618 8.70802L25.4342 7.05841H24.9718H24.7662V7.10996ZM8.32392 11.6979V38.5042H12.0234V43.1437H8.32392H3.69952H0V38.5042H3.69952V11.6979H0V7.05841H3.69952H8.32392H12.0234V11.6979H8.32392ZM71.6268 11.6979V38.5042H75.3263V43.1437H71.6268H67.0024H63.3029V38.5042H67.0024V11.6979H56.469V7.05841H67.0024H71.6268H82.1601V11.6979H71.6268ZM90.2272 11.6979V40.8239C90.2272 42.1127 91.2548 43.1437 92.5394 43.1437H93.9267H94.8516H110.575C111.859 43.1437 112.887 42.1127 112.887 40.8239V38.2464V37.6278V35.9266H108.262V38.5042H94.8516V27.4208H107.594V22.7813H94.8516V11.6979H106.31V14.2755H110.934V11.6979V11.1309V9.42973C110.934 8.14097 109.907 7.10996 108.622 7.10996H94.8516H90.2272H86.579V11.7495H90.2272V11.6979Z" fill="white"/>
<path fill-rule="evenodd" clip-rule="evenodd" d="M166.423 27.4202H166.526C169.558 27.4202 172.075 29.8946 172.075 32.9877C172.075 36.0291 169.609 38.5551 166.526 38.5551H164.471H147.258V43.1946H164.368H164.471H166.526C172.075 43.1946 176.648 38.6067 176.648 33.0392C176.648 27.4718 172.075 22.8838 166.526 22.8838H166.423H164.831V22.9353V22.8838H161.85C158.819 22.8838 156.301 20.4094 156.301 17.3164C156.301 14.2749 158.767 11.7489 161.85 11.7489H163.906H178.807V7.10938H164.008H163.906H161.85C156.301 7.10938 151.728 11.6974 151.728 17.2648C151.728 22.8322 156.301 27.4202 161.85 27.4202H164.779H166.423Z" fill="#CF3620"/>
</svg>

<svg xmlns="http://www.w3.org/2000/svg" fill="none" viewBox="0 0 321 68"><path fill="#fff" fill-rule="evenodd" d="M293.495 27.42h12.743v-4.639h-12.743V11.698h11.458v2.577h4.625V9.43a2.307 2.307 0 0 0-2.312-2.32h-22.043v4.64h3.648v29.126a2.306 2.306 0 0 0 2.312 2.32h18.035a2.306 2.306 0 0 0 2.312-2.32v-4.897h-4.624v2.577h-13.411V27.42zm-69.674 16.497v-4.64c7.81 0 14.13-6.34 14.13-14.176s-6.32-14.176-14.13-14.176v-4.64c10.328 0 18.703 8.403 18.703 18.764 0 10.465-8.375 18.868-18.703 18.868zm29.956-29.538l1.798 2.938 14.644 23.352 1.541 2.475h5.087V11.698h3.957v-4.64h-6.269a2.307 2.307 0 0 0-2.312 2.32v26.549c-.103-.155-.154-.31-.257-.464-.514-.877-1.028-1.702-1.541-2.578L255.267 8.708l-1.028-1.65h-5.087v31.446h-3.956v4.64h6.269a2.307 2.307 0 0 0 2.312-2.32V14.379zm-29.956-8.042v4.64c-7.81 0-14.13 6.34-14.13 14.176 0 7.835 6.32 14.176 14.13 14.176v4.64c-10.071 0-18.292-7.99-18.703-18.043V24.43c.411-10.104 8.581-18.094 18.703-18.094zm-18.703 5.36V7.059v4.64zm0-4.587v4.64h-11.356v26.806h3.7v4.64H185.438v-4.64h3.7V11.75h-10.533V7.11H205.118zm0 17.27v1.546-1.547zm-71.987 2.732v-4.64h4.162c2.98 0 5.395-2.423 5.395-5.413s-2.415-5.413-5.395-5.413h-4.162v-4.64h4.162c5.498 0 9.968 4.537 9.968 10.002 0 3.763-2.106 7.062-5.138 8.763 1.901 1.392 3.494 3.3 4.368 5.516.514 1.289.822 2.68.77 4.073v7.68h-2.312a2.307 2.307 0 0 1-2.312-2.32v-6.752c0-1.083-.36-2.165-.976-3.042-.977-1.495-2.672-2.732-4.522-3.814h-4.008zm0-20.002v4.64h-9.557v10.825h9.557v4.64H123.574v16.032h-2.312a2.306 2.306 0 0 1-2.312-2.32V11.698h-3.648v-4.64h17.829v.052zm-108.365 0H20.45v31.446h-4.008v4.64h6.269a2.306 2.306 0 0 0 2.312-2.32V14.379l1.799 2.938 14.643 23.352 1.542 2.475h5.087V11.698h3.956v-4.64h-6.269a2.306 2.306 0 0 0-2.312 2.32v26.549c-.102-.155-.154-.31-.257-.464-.513-.877-1.027-1.702-1.541-2.578L26.461 8.708l-1.027-1.65h-.668v.052zM8.324 11.698v26.806h3.7v4.64H0v-4.64h3.7V11.698H0v-4.64H12.024v4.64h-3.7zm63.303 0v26.806h3.7v4.64H63.301v-4.64h3.7V11.698H56.47v-4.64H82.16v4.64H71.627zm18.6 0v29.126a2.306 2.306 0 0 0 2.312 2.32h18.036a2.307 2.307 0 0 0 2.312-2.32v-4.897h-4.625v2.577h-13.41V27.421h12.742v-4.64H94.852V11.698h11.458v2.577h4.624V9.43a2.306 2.306 0 0 0-2.312-2.32H86.579v4.64h3.648v-.052z" clip-rule="evenodd"/><path fill="#CF3620" fill-rule="evenodd" d="M166.423 27.42h.103c3.032 0 5.549 2.475 5.549 5.568 0 3.041-2.466 5.567-5.549 5.567h-19.268v4.64h19.268c5.549 0 10.122-4.588 10.122-10.156 0-5.567-4.573-10.155-10.122-10.155h-1.695v.051-.051h-2.981c-3.031 0-5.549-2.475-5.549-5.568 0-3.041 2.466-5.567 5.549-5.567h16.957v-4.64H161.85c-5.549 0-10.122 4.588-10.122 10.156 0 5.567 4.573 10.155 10.122 10.155H166.423z" clip-rule="evenodd"/></svg>
